img/radio-on.svg

<svg width="16" height="16" fill="none" xmlns="http://www.w3.org/2000/svg"><path fill-rule="evenodd" clip-rule="evenodd" d="M14.6667 8c0 3.6819-2.9848 6.6667-6.6667 6.6667-3.6819 0-6.66667-2.9848-6.66667-6.6667C1.33333 4.3181 4.3181 1.33333 8 1.33333c3.6819 0 6.6667 2.98477 6.6667 6.66667ZM8 16c4.4183 0 8-3.5817 8-8 0-4.41828-3.5817-8-8-8-4.41828 0-8 3.58172-8 8 0 4.4183 3.58172 8 8 8Zm0-5c1.65685 0 3-1.34315 3-3S9.65685 5 8 5 5 6.34315 5 8s1.34315 3 3 3Z" fill="#2D3440"/></svg>

<svg width="16" height="16" viewBox="0 0 16 16" fill="none" xmlns="http://www.w3.org/2000/svg">
<path fill-rule="evenodd" clip-rule="evenodd" d="M14.6667 8C14.6667 11.6819 11.6819 14.6667 8 14.6667C4.3181 14.6667 1.33333 11.6819 1.33333 8C1.33333 4.3181 4.3181 1.33333 8 1.33333C11.6819 1.33333 14.6667 4.3181 14.6667 8ZM8 16C12.4183 16 16 12.4183 16 8C16 3.58172 12.4183 0 8 0C3.58172 0 0 3.58172 0 8C0 12.4183 3.58172 16 8 16ZM8 11C9.65685 11 11 9.65685 11 8C11 6.34315 9.65685 5 8 5C6.34315 5 5 6.34315 5 8C5 9.65685 6.34315 11 8 11Z" fill="#2D3440"/>
</svg>
